X:1
T:Title
%%score { ( 1 3 ) | ( 2 4 ) }
L:1/8
M:4/4
K:Ab
V:1 treble nm="Grand Piano"
V:3 treble 
V:2 bass 
V:4 bass 
V:1
 z4 z2[Q:1/4=108] [CE]>[CA] | [Ec]2 [Ec]2 [Ec]2 [Ae]2 | [Ge]2 [GB]2 [GB]2 [GB]>[Gc] | %3
 [Gd]2 [Gd]2 [Ec]2 [DB]2 | [CA]2 [DF]2 [CE]2 [CE]>[CA] | [Ec]2 [Ec]2 [Ec]2 [Ae]2 | %6
 [Ge]2 [GB]2 [GB]2 [_G=A]>[=GB] | [A=d]2 [Ac]2 [FA]2 =D2 |[M:7/8] F2 z2 D3 |[M:1/4] [CE]>[CA] | %10
[M:4/4] [Ec]2 [Ec]2 [Ec]2 [Ae]2 | [Ge]2 [GB]4 [GB]>[Ac] | [Gd]2 [Gd]2 [Gd]2 [Gf]2 | f2 e4 c>d | %14
 e2 e2 c2 [EA]2 | F6 z2 | [Fd]2 [Gd]2 [B,FB]2 [B,FA]2 | [B,EG]6 [G,E]>[G,E] | [A,EA]4 B4 | %19
 c2 e4 [Af]>[Af] | [Ae]2 c2 A2 B2 |[M:3/4] [CA]6 |] %22
V:2
 z4 z2 [A,,A,]>[A,,A,] | [A,,A,]2 [A,,A,]2 [A,,A,]2 [A,C]2 | [E,B,]2 [E,E]2 [E,E]2 [E,D]>[E,C] | %3
 [E,B,]2 [E,B,]2 [E,G,]2 [E,G,]2 | [A,,A,]2 [A,,A,]2 [A,,A,]2 [A,,A,]>[A,,A,] | %5
 [A,,A,]2 [A,,A,]2 [A,,A,]2 [A,C]2 | [E,B,]2 [E,E]2 [E,E]2 [E,E]>[E,E] | %7
 [F,B,]2 [F,B,]2 [B,,B,]2 [B,,A,B,]2 |[M:7/8] z2 B,2 z z2 |[M:1/4] [A,,A,]>[A,,A,] | %10
[M:4/4] [A,,A,]2 [A,,A,]2 [A,,A,]2 [A,C]2 | [E,B,]2 [E,E]4 [E,D]>[E,C] | %12
 [E,B,]2 [E,B,]2 [E,B,]2 [E,D]2 | [A,DA]2 [A,CA]4 [A,E]>[A,B,E] | %14
 [A,CA]2 [A,CA]2[K:bass] [A,E]2 [C,A,]2 | [D,A,D]2 [C,=A,]2 [B,,B,]2 [B,,B,]>[B,,B,] | %16
 [B,,B,]2 [B,,B,]2 D,2 =D,2 | E,2 F,2 E,2 D,>D, | C,4 [E,G,E]4 | E2 [CA]4[K:bass] [D,D]>[D,D] | %20
 [E,C]2 [E,A,E]2 [E,A,C]2 [E,G,D]2 |[M:3/4] [A,,A,]6 |] %22
V:3
 x8 | x8 | x8 | x8 | x8 | x8 | x8 | x8 |[M:7/8] z2 E- E- E3 |[M:1/4] x2 |[M:4/4] x8 | x8 | x8 | %13
 x8 | x8 | z2 E2 D2 [DF]>[DF] | x8 | x8 | x8 | x8 | x8 |[M:3/4] x6 |] %22
V:4
 x8 | x8 | x8 | x8 | x8 | x8 | x8 | x8 |[M:7/8] [E,A,B,]2 [E,G,]- [E,G,]- [E,G,]3 |[M:1/4] x2 | %10
[M:4/4] x8 | x8 | x8 | x8 | x4[K:bass] x4 | x8 | x8 | x8 | x8 | A,6[K:bass] z2 | x8 |[M:3/4] x6 |] %22

